packages/kaspersky-hexa-ui-icons/src/iconsSVGs/16/Vnf.svg

<svg width="16" height="16" viewBox="0 0 16 16" fill="none" xmlns="http://www.w3.org/2000/svg">
<path d="M3.80724 4.4104C4.45472 2.47542 6.1606 1.3291 7.99991 1.3291C9.50768 1.3291 10.8872 2.07479 11.7355 3.41093C13.333 3.7075 14.6707 5.14121 14.6707 6.99991C14.6707 8.42717 13.8562 9.66418 12.6666 10.2714V8.62698C13.0765 8.20715 13.3291 7.63303 13.3291 6.99991C13.3291 5.72144 12.3423 4.78199 11.2726 4.70161L10.907 4.67414L10.7327 4.35159C10.1381 3.25113 9.11593 2.67072 7.99991 2.67072C6.64335 2.67072 5.3628 3.56891 4.98591 5.16554L4.87318 5.64311L4.3839 5.68031C3.84316 5.72141 3.42743 5.9347 3.14475 6.2526C2.86052 6.57224 2.67072 7.0434 2.67072 7.66658C2.67072 8.15121 2.93251 8.61368 3.33324 8.92725V10.451C2.21033 10.0123 1.3291 8.95837 1.3291 7.66658C1.3291 6.76464 1.60852 5.96124 2.14218 5.36109C2.57567 4.8736 3.15061 4.55021 3.80724 4.4104Z" fill="black"/>
<path d="M8.67072 6.4858C9.06696 6.25467 9.33324 5.82505 9.33324 5.33324C9.33324 4.59686 8.73629 3.99991 7.99991 3.99991C7.26353 3.99991 6.66657 4.59686 6.66657 5.33324C6.66657 5.82506 6.93285 6.25467 7.3291 6.4858V13.9999C7.3291 14.3704 7.62943 14.6707 7.99991 14.6707C8.37039 14.6707 8.67072 14.3704 8.67072 13.9999V6.4858Z" fill="black"/>
<path d="M6.00405 7.99991C6.00405 7.62944 5.70372 7.3291 5.33324 7.3291C4.96276 7.3291 4.66243 7.62944 4.66243 7.99991V11.9958L3.81913 11.9958C3.58801 11.5995 3.15839 11.3332 2.66658 11.3332C1.9302 11.3332 1.33324 11.9302 1.33324 12.6666C1.33324 13.403 1.9302 13.9999 2.66658 13.9999C3.15838 13.9999 3.588 13.7336 3.81912 13.3374H4.66243C5.40339 13.3374 6.00405 12.7367 6.00405 11.9958V7.99991Z" fill="black"/>
<path d="M10.6666 7.3291C11.0371 7.3291 11.3374 7.62944 11.3374 7.99991V11.9958L12.1807 11.9958C12.4118 11.5995 12.8414 11.3332 13.3332 11.3332C14.0696 11.3332 14.6666 11.9302 14.6666 12.6666C14.6666 13.403 14.0696 13.9999 13.3332 13.9999C12.8414 13.9999 12.4118 13.7336 12.1807 13.3374H11.3374C10.5964 13.3374 9.99577 12.7367 9.99577 11.9958V7.99991C9.99577 7.62944 10.2961 7.3291 10.6666 7.3291Z" fill="black"/>
</svg>

<svg xmlns="http://www.w3.org/2000/svg" width="16" height="16" fill="none" viewBox="0 0 16 16"><path fill="#000" fill-rule="evenodd" d="M3.8074 4.4105C4.4548 2.4755 6.1607 1.3292 8 1.3292c1.5078 0 2.8874.7457 3.7356 2.0818 1.5976.2966 2.9352 1.7303 2.9352 3.589 0 1.4273-.8145 2.6643-2.0041 3.2715V8.6271a2.322 2.322 0 0 0 .6625-1.627c0-1.2785-.9868-2.218-2.0565-2.2984l-.3656-.0274-.1742-.3226C10.1382 3.2512 9.116 2.6708 8 2.6708c-1.3565 0-2.637.8982-3.014 2.4949l-.1127.4775-.4893.0372c-.5407.0411-.9565.2544-1.2391.5723-.2843.3197-.474.7908-.474 1.414 0 .4846.2617.9471.6625 1.2607v1.5237c-1.123-.4387-2.0042-1.4926-2.0042-2.7844 0-.902.2794-1.7053.8131-2.3055.4335-.4875 1.0084-.8109 1.665-.9507M8.6708 6.486a1.333 1.333 0 0 0 .6626-1.1525C9.3334 4.597 8.7364 4 8 4s-1.3333.597-1.3333 1.3334c0 .4918.2663.9214.6625 1.1525V14a.6708.6708 0 1 0 1.3416 0zM6.0042 8a.6708.6708 0 1 0-1.3416 0v3.9959h-.8434a1.333 1.333 0 0 0-1.1525-.6625c-.7364 0-1.3333.5969-1.3333 1.3333S1.9304 14 2.6667 14c.4918 0 .9214-.2662 1.1525-.6625h.8434c.7409 0 1.3416-.6007 1.3416-1.3416zm4.6625-.6708A.671.671 0 0 1 11.3375 8v3.9959h.8433a1.333 1.333 0 0 1 1.1526-.6625c.7363 0 1.3333.5969 1.3333 1.3333S14.0697 14 13.3334 14a1.333 1.333 0 0 1-1.1526-.6625h-.8433c-.741 0-1.3416-.6007-1.3416-1.3416V8a.671.671 0 0 1 .6708-.6708"/></svg>
